X: 589
T:Castle Jig, The
M:6/8
L:1/8
C:Sean Ryan
S:From Peter Horan (on fiddle)
R:Jig
N:Posted to the woodenflute mailing list October 2002
N:Ripe Mellons
Z:Craig Herrity
K:A dor
A/2B/2|cBA BAG|AGE dBG|~A3 edB|DEG AGE|c2A BAG|
AGE dBG|~A3 ede|dBG A2::A/2B/2|cBA ~a3|bag edB|GBd g2g|
GBd GBd|cBc d^cd|ede gab|age dBG|EFG A2:|
<end>
<start>
